X:44
T:Maraichine
C:D. Gravouille
M:4/4
L:1/4
K:G
d2Bd|cBA2|DG/G/GF/G/|1AA/A/BG:|2 AF/F/ G2\
|:D G/G/ G F/G/|AA/A/BG|DG/G/GF/G/|AFG2:|
%%newpage
%%center Suite de gavottes des Montagnes (Burns Duo)
%%center
